X:1
T:Title
%%score ( 1 2 )
L:1/8
Q:1/4=60
M:3/4
K:F
V:1 treble nm="Flauta, Mozart" snm="Fl."
V:2 treble 
V:1
 z6 | z6 | z6 | z6 | z6 | z6 | z6 | z6 | z6 | z6 | z6 | z6 | z6 | a2 a2 a2 | g3- g/e/ .f2 | f6 | %16
 b3- b/c'/4d'/4 c'2 | (3:2:2A a2- ab/c'/ e'/d'/c'/b/ | a g2 a/b/ d'/c'/b/a/ | %19
 g f2 g/a/ b/c'/d'/b/ | a2 g2 z2 | g3 a/g/ c'/=b/a/g/ | g>a g2 z2 | (3:2:2d d'2 c'/=b/a/g/ gg | %24
 g>e g2 z2 | z6 | z2 g>a g2 | z6 | z2 g>e gg | c'2 =b/a/g/^f/ ff | a/g/ g2 =b/d'/ c'/a/g/^f/ | %31
 g/8a/8g/8a/8g/8a/8g/8a/8g/8a/8g/8a/8^f/4g/4 G4 | z6 | z6 | z6 | z2 f2 f'/d'/=b/f/ | %36
 e2 e/8f/8e/8f/8e/8f/8e/8f/8e/8f/8e/8f/8d/4e/4f/8g/8f/8g/8f/8g/8f/8g/8f/8g/8f/8g/8e/4f/4 | %37
 g>e c'3 g | g/f/.a/.f/ f/e/.g/.e/ e/d/.f/.d/ | c4 z2 | z6 | z6 | z2 ff'- f'/d'/=b/f/ | %43
 e2 e/8f/8e/8f/8e/8f/8e/8f/8e/8f/8e/8f/8d/4e/4f/8g/8f/8g/8f/8g/8f/8g/8f/8g/8f/8g/8e/4f/4 | %44
 g>e g2 z2 | %45
 e2 e/8f/8e/8f/8e/8f/8e/8f/8e/8f/8e/8f/8d/4e/4f/8.[fg]/4g/8f/8g/8f/8g/8f/8g/8f/8g/8e/4f/4 | %46
 g/e/.g/.g/ g2 z2 | c'=b ag fe | d/4e/4d/4^c/4d/.e/ f/4g/4f/4e/4f/.g/ a/4=b/4a/4g/4a/.b/ | %49
 c'/g/=b/4a/4g/4f/4 e2 d/8e/8d/8e/8d/8e/8d/8e/8c/d/ | c2 z2 z2 | z6 | z6 | c'6 | =b6 | b6 | a6 | %57
 b2 b/8c'/8b/8c'/8b/8c'/8b/8c'/8b/8c'/8b/8c'/8b/8c'/8a/8b/8 b3/2a/4b/4 | a2 a2 a2 | g3- g/e/ .f2 | %60
 f6 | b3- b/c'/4d'/4 .c'2 | (3:2:2A a2- a>c' e'/d'/c'/b/ | a g2 a/b/ d'/c'/b/a/ | %64
 g f2 g/a/ b/c'/d'/b/ | a2 g4 | g3 a/g/ c'/=b/a/g/ | g>a g2 z2 | (3:2:2d d'2 c'/=b/a/g/ gg | %69
 g>e g2 z2 | z6 | z2 c'>d' c'2 | z6 | z2 c'>a c'c' | c'/=b/a b/c'/d'/c'/ b/a/g/f/ | %75
 f/e/a/g/ g2 f'/d'/c'/=b/ | c'/8d'/8c'/8d'/8c'/8d'/8c'/8d'/8c'/8d'/8c'/8d'/8b/4c'/4 c2 z2 | z6 | %78
 z6 | z6 | z2 B2- B/e/g/b/ | %81
 a2 a/8b/8a/8b/8a/8b/8a/8b/8a/8b/8a/8b/8g/4a/4b/8c'/8b/8c'/8b/8c'/8b/8c'/8b/8c'/8b/8c'/8a/4b/4 | %82
 c'>a f'3 c' | c'/b/.d'/.b/ b/a/.c'/.a/ a/g/.b/.g/ | f2 z2 z2 | z6 | z6 | z2 b2- b/g/e/B/ | %88
 A2 (3A/c/B/(3A/B/c/ (3B/d/c/(3B/c/d/ | c4 z2 | A<a- a/a/b/4a/4g/4a/4 b/b/c'/4b/4a/4b/4 | c'>a f4 | %92
 (3:2:2f/f'e' d'c' ba | ^f/.gg/ a/.bb/ ^c'/.d'd'/ | %94
 c'/ z/4 a/4d'/4b/4d'/4b/4 a2 g/8a/8g/8a/8g/8a/8g/8a/8f/g/ | f2 z2 z2 | z6 | f4 d'2 | C2 f'c' af | %99
 g/8a/8g/8a/8g/8a/8g/8a/8g/8a/8g/8a/8g/8a/8g/8a/8g/8a/8g/8a/8g/8a/8g/8a/8g/8a/8g/8a/8g/8a/8g/8a/8g/8a/8g/8a/8g/8a/8g/8a/8f/g/ | %100
 f4 z2 | z6 |[Q:1/4=44] z2 f2 f'2 | %103
[Q:1/4=38] c'2[Q:1/4=44] z z/ f/g/8a/8g/8a/8g/8a/8g/8a/8g/8a/8g/8a/8f/4g/4 |[Q:1/4=50] f4 z2 | %105
 g3- g/e/ f2 | z2 z2 z z/ f/ | b3- b/c'/4d'/4 c'2 | a3 b/c'/ e'/d'/c'/b/ | a g2 a/b/ d'/c'/b/a/ | %110
 g f2 g/a/ b/c'/d'/b/ | a>g g3 a | b3/2c'/4d'/4 f2 ag | ff'/e'/ e'/d'/d'/c'/ c'/=b/d'/c'/ | %114
 b3/2c'/4d'/4 f2 ag | %115
 fag/8a/8g/8a/8g/8a/8g/8a/8g/8a/8g/8a/8f/4g/4b/8c'/8b/8c'/8b/8c'/8b/8c'/8b/8c'/8b/8c'/8a/4b/4 | %116
 c'2 z2 z2 |[Q:1/4=44] z2 .f2 .f2 | f2 z2 z2 |] %119
V:2
 x6 | x6 | x6 | x6 | x6 | x6 | x6 | x6 | x6 | x6 | x6 | x6 | x6 | x6 | x6 | x6 | x6 | x6 | x6 | %19
 x6 | x6 | x6 | x6 | x6 | x6 | x6 | x6 | x6 | x6 | x6 | x6 | x6 | x6 | x6 | x6 | x6 | x6 | x6 | %38
 x6 | x6 | x6 | x6 | x6 | x6 | x6 | x6 | x6 | x6 | x6 | x6 | x6 | x6 | x6 | x6 | x6 | x6 | x6 | %57
 x6 | x6 | x6 | x6 | x6 | z2 z b z2 | x6 | x6 | x6 | x6 | x6 | x6 | x6 | x6 | x6 | x6 | x6 | x6 | %75
 x6 | x6 | x6 | x6 | x6 | x6 | x6 | x6 | x6 | x6 | x6 | x6 | x6 | x6 | x6 | x6 | x6 | x6 | x6 | %94
 x6 | x6 | x6 | x6 | x6 | x6 | x6 | x6 | x6 | x6 | x6 | x6 | x6 | x6 | x6 | x6 | x6 | x6 | x6 | %113
 x6 | x6 | x6 | x6 | x6 | x6 |] %119

